X:1
T:[ID 2-40a]
T:[ID 2-40a]
T:Bezeichnung standardisiert: Menuett Menuet
T:Urheber unbekannt Erstbeleg: 1767 (Datum in der schriftlichen Quelle) Datum in der hier transkribierten schriftlichen Quelle: 1776 - 1791
C:Urheber unbekannt
C:Erstbeleg: 1767 (Datum in der schriftlichen Quelle)
C:Datum in der hier transkribierten schriftlichen Quelle: 1776 - 1791
%%score 1 2
L:1/8
M:3/4
K:C
V:1 treble 
V:2 treble nm="Secondo"
V:1
 c2 e2 g2 | a4 fa | g4 eg | f2 d2 ed | c2 B2 c2 | Bd g4 | cABGA^F | G4 G,2 :: G2 G2 G2 | f4 e2 | %10
 _b4 a2 | fgfedc | BA G4 | c2 e2 g2 | a4 fa | g4 eg | f2 e2 dB |{B} c6 :| %18
V:2
 !fermata!E2 c2 e2 | f4 df | e4 ce | d2 B2 GE | E2 D2{D} E2 | GA TB4 | G2 D2 C2 | B,6 :: B2 B2 B2 | %9
 d4 c2 | g4 fe | dedcBA | (3GAB B4 | C2 c2 e2 |{e} f4 df | e4 ce | d2 c2 GF | E6 :| %18

